X:2
%
T: North Cregg
M: 2/4
L: 1/8
R: polka
Z:D.J.F., The Session 16.03.08
K: Amaj
| A2 A>E |FAFE | FB BA/B/ |cB B2 |
A2 A>E| FAFE | AA BA/B/| cA A2 :||
||: AeAe| f2 f2 | BfBf |g2 g2 |
cgcg |a2 g>f | ec BA/B/| cA A2 :|]

